assets/svg/next_video.svg

<svg fill="none" height="15" viewBox="0 0 21 15" width="21" xmlns="http://www.w3.org/2000/svg"><path clip-rule="evenodd" d="m.666626 13.7794c0 .7397.850744 1.1558 1.434614.7017l7.99996-6.22224c.4576-.35587.4576-1.04742 0-1.40329l-7.99996-6.222224c-.58387-.454124-1.434614-.038041-1.434614.701644zm9.777774 0c0 .7397.8507 1.1558 1.4346.7017l8-6.22224c.4576-.35587.4576-1.04742 0-1.40329l-8-6.222224c-.5839-.454124-1.4346-.038041-1.4346.701644z" fill="#fff" fill-rule="evenodd"/></svg>

<svg width="21" height="15" viewBox="0 0 21 15" fill="none" xmlns="http://www.w3.org/2000/svg">
<path fill-rule="evenodd" clip-rule="evenodd" d="M0.666626 13.7794C0.666626 14.5191 1.51737 14.9352 2.10124 14.4811L10.1012 8.25886C10.5588 7.90299 10.5588 7.21144 10.1012 6.85557L2.10124 0.633346C1.51737 0.179222 0.666626 0.595305 0.666626 1.33499V13.7794ZM10.4444 13.7794C10.4444 14.5191 11.2951 14.9352 11.879 14.4811L19.879 8.25886C20.3366 7.90299 20.3366 7.21144 19.879 6.85557L11.879 0.633346C11.2951 0.179222 10.4444 0.595305 10.4444 1.33499V13.7794Z" fill="white"/>
</svg>
